default/images/icon/database.svg

<svg xmlns="http://www.w3.org/2000/svg" viewBox="0 0 20 20"><rect x="0" fill="none" width="20" height="20"/><g><path d="M10 6c3.9 0 7-.9 7-2s-3.1-2-7-2-7 .9-7 2 3.1 2 7 2zm0 9c-3.9 0-7-.9-7-2v3c0 1.1 3.1 2 7 2s7-.9 7-2v-3c0 1.1-3.1 2-7 2zm0-4c-3.9 0-7-.9-7-2v3c0 1.1 3.1 2 7 2s7-.9 7-2V9c0 1.1-3.1 2-7 2zm0-4c-3.9 0-7-.9-7-2v3c0 1.1 3.1 2 7 2s7-.9 7-2V5c0 1.1-3.1 2-7 2z"/></g></svg>

<?xml version="1.0" encoding="utf-8"?>
<!-- Generator: Adobe Illustrator 24.3.0, SVG Export Plug-In . SVG Version: 6.00 Build 0)  -->
<svg version="1.1" id="レイヤー_1" xmlns="http://www.w3.org/2000/svg" xmlns:xlink="http://www.w3.org/1999/xlink" x="0px"
	 y="0px" viewBox="0 0 20 20" style="enable-background:new 0 0 20 20;" xml:space="preserve">
<style type="text/css">
	.st0{fill:none;}
	.st1{fill:#FFFFFF;}
</style>
<rect class="st0" width="20" height="20"/>
<g>
	<path class="st1" d="M10,6c3.9,0,7-0.9,7-2s-3.1-2-7-2S3,2.9,3,4S6.1,6,10,6z M10,15c-3.9,0-7-0.9-7-2v3c0,1.1,3.1,2,7,2s7-0.9,7-2
		v-3C17,14.1,13.9,15,10,15z M10,11c-3.9,0-7-0.9-7-2v3c0,1.1,3.1,2,7,2s7-0.9,7-2V9C17,10.1,13.9,11,10,11z M10,7C6.1,7,3,6.1,3,5
		v3c0,1.1,3.1,2,7,2s7-0.9,7-2V5C17,6.1,13.9,7,10,7z"/>
</g>
</svg>
